X: 3
T: The Cameron Highlander 1st part harmony on repeat of tune
M: 4/4
L: 1/8
K: Dmaj
A2 DF A2 DF|GGFE F3  |A2 DF A2 DF|EFED C2 |
A2 DF A2 DF|GGFE FAA2|G2F2 FEDC| D2A2 A2  |
